X:3159
T:Det sitter en f\aagel
C:anon.
O:Finland
Z:Transcribed by Frank Nordberg - http://www.musicaviva.com
F:http://abc.musicaviva.com/tunes/finland/det-sitter-en-faagel/det-sitter-en-faagel.abc
M:C
L:1/4
K:F
C|"F"F2 AF|"C7"c2 de|"Dm"f2 "Bb"dd|"Gm"B2 zd|"F"fc "C7"cd|
"Am"c>B "Dm"AF|"Gm"B>A "Bb"GF|"C"E2 "C7"zC|"F"F2 Ac|"Am"c2 "Gm"B/A/"Bb"G/F/|"C7"E3D/E/|"F"F3|]
W:
W:
W:  From Musica Viva - http://www.musicaviva.com
W:  the Internet center for free sheet music downloads.
